X:1
T:Put My Little Shoes Away
M:4/4
L:1/8
K:C
 E3 DC EG A| G4 D4| B3 AG GF D| C6 z2| E3 DC EG A| G4 D4| B3 AG GF D|\
 C6 z2| G3 Gc c B3/2 A/2| G2 c4 z2| A3 Ac cB A| G6 z2| E3 DC EG A|\
 G4 D4| B3 AG GF D| C6 z2| G3 Gc c B3/2 A/2| G2 c4 z2| A3 Ac cB A|\
 G6 z2| E3 DC EG A| G4 D4| B3 AG GF D| C6 z2|
